src/assets/icons/category_Services.svg

<?xml version="1.0" encoding="UTF-8" standalone="no"?>
<svg width="38px" height="38px" viewBox="0 0 38 38" version="1.1" xmlns="http://www.w3.org/2000/svg" xmlns:xlink="http://www.w3.org/1999/xlink">
    <!-- Generator: sketchtool 41.2 (35397) - http://www.bohemiancoding.com/sketch -->
    <title>BBBF1819-997E-403E-BD44-EC08A33810D3</title>
    <desc>Created with sketchtool.</desc>
    <defs></defs>
    <g id="Nav" stroke="none" stroke-width="1" fill="none" fill-rule="evenodd">
        <g id="Categories_Selected_Mobile-" transform="translate(-80.000000, -721.000000)" fill="#AEAEAE">
            <path d="M109.75,747.583333 C109.75,748.89275 108.684417,749.958333 107.375,749.958333 L89.9583333,749.958333 C88.6489167,749.958333 87.5833333,748.89275 87.5833333,747.583333 L87.5833333,745.208333 C87.5833333,744.765 87.9443333,744.416667 88.3876667,744.416667 L89.1666667,744.416667 L91.5416667,744.416667 L91.5416667,745.208333 C91.5416667,745.645333 91.8963333,746 92.3333333,746 C92.7703333,746 93.125,745.645333 93.125,745.208333 L93.125,744.416667 L104.208333,744.416667 L104.208333,745.208333 C104.208333,745.645333 104.563,746 105,746 C105.437,746 105.791667,745.645333 105.791667,745.208333 L105.791667,744.416667 L108.166667,744.416667 L108.945667,744.416667 C109.389,744.416667 109.75,744.765 109.75,745.208333 L109.75,747.583333 Z M87.5833333,736.425583 C87.5833333,734.720333 88.9703333,733.333333 90.6755833,733.333333 L106.65775,733.333333 C108.363,733.333333 109.75,734.720333 109.75,736.425583 L109.75,741.237333 C109.75,742.110542 109.039875,742.833333 108.166667,742.833333 L105.791667,742.833333 L105.791667,740.458333 C105.791667,740.021333 105.437,739.666667 105,739.666667 C104.563,739.666667 104.208333,740.021333 104.208333,740.458333 L104.208333,742.833333 L93.125,742.833333 L93.125,740.458333 C93.125,740.021333 92.7703333,739.666667 92.3333333,739.666667 C91.8963333,739.666667 91.5416667,740.021333 91.5416667,740.458333 L91.5416667,742.833333 L89.1666667,742.833333 C88.2934583,742.833333 87.5833333,742.110542 87.5833333,741.237333 L87.5833333,736.425583 Z M94.7083333,730.179333 C94.7083333,729.299 95.424,728.583333 96.3043333,728.583333 L101.029,728.583333 C101.909333,728.583333 102.625,729.299 102.625,730.179333 L102.625,731.75 L94.7083333,731.75 L94.7083333,730.179333 Z M106.65775,731.75 L104.208333,731.75 L104.208333,730.179333 C104.208333,728.425792 102.782542,727 101.029,727 L96.3043333,727 C94.5507917,727 93.125,728.425792 93.125,730.179333 L93.125,731.75 L90.6755833,731.75 C88.097125,731.75 86,733.847125 86,736.425583 L86,741.237333 C86,742.070958 86.330125,742.824625 86.8581667,743.390667 C86.3380417,743.82925 86,744.476833 86,745.208333 L86,747.583333 C86,749.765958 87.7757083,751.541667 89.9583333,751.541667 L107.375,751.541667 C109.557625,751.541667 111.333333,749.765958 111.333333,747.583333 L111.333333,745.208333 C111.333333,744.476833 110.995292,743.82925 110.475167,743.390667 C111.003208,742.824625 111.333333,742.070958 111.333333,741.237333 L111.333333,736.425583 C111.333333,733.847125 109.236208,731.75 106.65775,731.75 Z M92.3333333,746.791667 C91.8963333,746.791667 91.5416667,747.146333 91.5416667,747.583333 L91.5416667,748.375 C91.5416667,748.812 91.8963333,749.166667 92.3333333,749.166667 C92.7703333,749.166667 93.125,748.812 93.125,748.375 L93.125,747.583333 C93.125,747.146333 92.7703333,746.791667 92.3333333,746.791667 Z M105,746.791667 C104.563,746.791667 104.208333,747.146333 104.208333,747.583333 L104.208333,748.375 C104.208333,748.812 104.563,749.166667 105,749.166667 C105.437,749.166667 105.791667,748.812 105.791667,748.375 L105.791667,747.583333 C105.791667,747.146333 105.437,746.791667 105,746.791667 Z" id="Combined-Shape"></path>
        </g>
    </g>
</svg>

<svg width="38" height="38" viewBox="0 0 38 38" xmlns="http://www.w3.org/2000/svg"><g id="Nav" fill="none" fill-rule="evenodd"><g id="Categories_Selected_Mobile-" transform="translate(-80 -721)" fill="#AEAEAE"><path d="M109.75 747.583a2.378 2.378 0 0 1-2.375 2.375H89.958a2.378 2.378 0 0 1-2.375-2.375v-2.375c0-.443.361-.791.805-.791h3.154v.791a.792.792 0 0 0 1.583 0v-.791h11.083v.791a.792.792 0 0 0 1.584 0v-.791h3.154c.443 0 .804.348.804.791v2.375zm-22.167-11.157a3.096 3.096 0 0 1 3.093-3.093h15.982a3.096 3.096 0 0 1 3.092 3.093v4.811c0 .874-.71 1.596-1.583 1.596h-2.375v-2.375a.792.792 0 0 0-1.584 0v2.375H93.125v-2.375a.792.792 0 0 0-1.583 0v2.375h-2.375a1.596 1.596 0 0 1-1.584-1.596v-4.811zm7.125-6.247c0-.88.716-1.596 1.596-1.596h4.725c.88 0 1.596.716 1.596 1.596v1.571h-7.917v-1.57zm11.95 1.571h-2.45v-1.57a3.182 3.182 0 0 0-3.179-3.18h-4.725a3.182 3.182 0 0 0-3.179 3.18v1.57h-2.45A4.68 4.68 0 0 0 86 736.426v4.811c0 .834.33 1.588.858 2.154a2.373 2.373 0 0 0-.858 1.817v2.375a3.963 3.963 0 0 0 3.958 3.959h17.417a3.963 3.963 0 0 0 3.958-3.959v-2.375c0-.731-.338-1.379-.858-1.817.528-.566.858-1.32.858-2.154v-4.811a4.68 4.68 0 0 0-4.675-4.676zm-14.325 15.042a.792.792 0 0 0-.791.791v.792a.792.792 0 0 0 1.583 0v-.792a.792.792 0 0 0-.792-.791zm12.667 0a.792.792 0 0 0-.792.791v.792a.792.792 0 0 0 1.584 0v-.792a.792.792 0 0 0-.792-.791z" id="Combined-Shape"/></g></g></svg>
